svgs/light/arrow-up-9-1.svg

<svg xmlns="http://www.w3.org/2000/svg" viewBox="0 0 512 512"><!-- Font Awesome Pro 6.0.0-alpha2 by @fontawesome - https://fontawesome.com License - https://fontawesome.com/license (Commercial License) --><path d="M432 448H400V304C400 295.156 392.844 288 384 288H352C343.156 288 336 295.156 336 304S343.156 320 352 320H368V448H336C327.156 448 320 455.156 320 464S327.156 480 336 480H432C440.844 480 448 472.844 448 464S440.844 448 432 448ZM384 32C339.875 32 304 67.875 304 112S339.875 192 384 192C400.734 192 416.254 186.801 429.107 177.988C421.275 204.484 396.994 224 368 224C359.156 224 352 231.156 352 240S359.156 256 368 256C420.938 256 464 212.938 464 160V112C464 67.875 428.125 32 384 32ZM384 160C357.531 160 336 138.469 336 112S357.531 64 384 64S432 85.531 432 112S410.469 160 384 160ZM139.312 36.688C133.062 30.438 122.937 30.438 116.688 36.688L20.688 132.688C14.438 138.938 14.438 149.063 20.688 155.312S37.063 161.562 43.312 155.312L112 86.625V464C112 472.844 119.156 480 128 480S144 472.844 144 464V86.625L212.688 155.312C215.812 158.438 219.906 160 224 160S232.188 158.438 235.312 155.312C241.562 149.062 241.562 138.937 235.312 132.688L139.312 36.688Z"/></svg>

<svg xmlns="http://www.w3.org/2000/svg" viewBox="0 0 512 512"><!--! Font Awesome Pro 6.3.0 by @fontawesome - https://fontawesome.com License - https://fontawesome.com/license (Commercial License) Copyright 2023 Fonticons, Inc. --><path d="M432 448h-32V304C400 295.2 392.8 288 384 288h-32c-8.844 0-16 7.156-16 16S343.2 320 352 320h16v128h-32c-8.844 0-16 7.156-16 16s7.156 16 16 16h96c8.844 0 16-7.156 16-16S440.8 448 432 448zM384 32c-44.13 0-80 35.88-80 80S339.9 192 384 192c16.73 0 32.25-5.199 45.11-14.01C421.3 204.5 396.1 224 368 224C359.2 224 352 231.2 352 240S359.2 256 368 256c52.94 0 96-43.06 96-96V112C464 67.88 428.1 32 384 32zM384 160c-26.47 0-48-21.53-48-48S357.5 64 384 64s48 21.53 48 48S410.5 160 384 160zM139.3 36.69c-6.25-6.25-16.38-6.25-22.62 0l-96 96c-6.25 6.25-6.25 16.38 0 22.62s16.38 6.25 22.62 0L112 86.63V464c0 8.844 7.157 15.1 16 15.1S144 472.8 144 464V86.63l68.69 68.69C215.8 158.4 219.9 160 224 160s8.188-1.562 11.31-4.688c6.25-6.25 6.25-16.38 0-22.62L139.3 36.69z"/></svg>
